docs/images/svg/gmail.svg

<!-- Generated by IcoMoon.io -->
<svg version="1.1" xmlns="http://www.w3.org/2000/svg" width="32" height="32" viewBox="0 0 32 32">
<title>gmail</title>
<path d="M32 6v20c0 1.133-0.867 2-2 2h-2v-18.151l-12 8.617-12-8.617v18.151h-2c-1.135 0-2-0.867-2-2v-20c0-0.567 0.216-1.067 0.575-1.424 0.359-0.363 0.86-0.576 1.425-0.576h0.667l13.333 9.667 13.333-9.667h0.667c0.567 0 1.067 0.216 1.425 0.576 0.36 0.357 0.575 0.857 0.575 1.424z"></path>
</svg>

<svg xmlns="http://www.w3.org/2000/svg" width="32" height="32"><path d="M32 6v20c0 1.133-.867 2-2 2h-2V9.849l-12 8.617L4 9.849V28H2c-1.135 0-2-.867-2-2V6c0-.567.216-1.067.575-1.424A1.98 1.98 0 012 4h.667L16 13.667 29.333 4H30c.567 0 1.067.216 1.425.576.36.357.575.857.575 1.424z"/></svg>
